X:13
T:Archduke John of Austria
R:Strathspey
B:The Athole Collection
M:C
L:1/8
K:F
a|f<d d<c A<d d>f|e>cg>c e/f/g/e/ c<a|f<d d>c A<d d>f|e>c a/g/f/e/ f<dd:|
|:A|d>ef>e d<A A>F|E>cG>c E<C C>A|1 d>e f/g/e/f/ d<A A>F|
E>c A/B/^c/A/ dFE>G F>AG>b|a>A a/g/f/e/ ~f<dd||
